samples/widgets/d3/icon.svg

<?xml version="1.0" encoding="UTF-8"?>
<svg width="16px" height="16px" viewBox="0 0 16 16" version="1.1" xmlns="http://www.w3.org/2000/svg" xmlns:xlink="http://www.w3.org/1999/xlink">
    <g id="Style" stroke="none" stroke-width="1" fill="none" fill-rule="evenodd">
        <g id="*UI-icons" transform="translate(-100.000000, -515.000000)" fill="#FFF" fill-rule="nonzero">
            <path d="M102,516 C101.447715,516 101,516.447715 101,517 L101,529 C101,529.552285 101.447715,530 102,530 L114,530 C114.552285,530 115,529.552285 115,529 L115,517 C115,516.447715 114.552285,516 114,516 L102,516 Z M102,515 L114,515 C115.104569,515 116,515.895431 116,517 L116,529 C116,530.104569 115.104569,531 114,531 L102,531 C100.895431,531 100,530.104569 100,529 L100,517 C100,515.895431 100.895431,515 102,515 Z M105.5,526 L107.5,526 C109.156854,526 110.5,524.656854 110.5,523 C110.5,521.343146 109.156854,520 107.5,520 L105.5,520 L105.5,526 Z M107.5,527 L104.5,527 L104.5,519 L107.5,519 C109.709139,519 111.5,520.790861 111.5,523 C111.5,525.209139 109.709139,527 107.5,527 Z" id="widget-demo"></path>
        </g>
    </g>
</svg>

<?xml version="1.0" encoding="utf-8"?>
<svg version="1.1" id="Layer_1" xmlns="http://www.w3.org/2000/svg" xmlns:xlink="http://www.w3.org/1999/xlink" x="0px" y="0px"
	 viewBox="0 0 16 16" style="enable-background:new 0 0 16 16;" xml:space="preserve">
<style type="text/css">
	.st0{fill:#FFFFFF;}
</style>
<title>widget-simple</title>
<g id="Style">
	<g transform="translate(-100.000000, -515.000000)">
		<path id="widget-demo" class="st0" d="M102,516c-0.6,0-1,0.4-1,1v12c0,0.6,0.4,1,1,1h12c0.6,0,1-0.4,1-1v-12c0-0.6-0.4-1-1-1H102z
			 M102,515h12c1.1,0,2,0.9,2,2v12c0,1.1-0.9,2-2,2h-12c-1.1,0-2-0.9-2-2v-12C100,515.9,100.9,515,102,515z"/>
	</g>
</g>
<g>
	<path class="st0" d="M5.8,10.8c0.5,0.3,1.2,0.5,1.9,0.5c1.1,0,1.7-0.6,1.7-1.4c0-0.8-0.4-1.2-1.5-1.6C6.5,7.8,5.7,7.2,5.7,6
		c0-1.3,1-2.2,2.6-2.2c0.8,0,1.4,0.2,1.8,0.4L9.8,5.1C9.6,4.9,9,4.7,8.3,4.7c-1.1,0-1.5,0.7-1.5,1.2c0,0.8,0.5,1.1,1.6,1.6
		c1.4,0.5,2.1,1.2,2.1,2.4c0,1.2-0.9,2.3-2.8,2.3c-0.8,0-1.6-0.2-2.1-0.5L5.8,10.8z"/>
</g>
</svg>
